icons/svgs/bars-outline.svg

<svg width="24" height="24" viewBox="0 0 24 24" fill="none" xmlns="http://www.w3.org/2000/svg">
<path d="M3.25 5.4375C3.25 4.92969 3.64062 4.5 4.1875 4.5H19.8125C20.3203 4.5 20.75 4.92969 20.75 5.4375C20.75 5.98438 20.3203 6.375 19.8125 6.375H4.1875C3.64062 6.375 3.25 5.98438 3.25 5.4375ZM3.25 11.6875C3.25 11.1797 3.64062 10.75 4.1875 10.75H19.8125C20.3203 10.75 20.75 11.1797 20.75 11.6875C20.75 12.2344 20.3203 12.625 19.8125 12.625H4.1875C3.64062 12.625 3.25 12.2344 3.25 11.6875ZM20.75 17.9375C20.75 18.4844 20.3203 18.875 19.8125 18.875H4.1875C3.64062 18.875 3.25 18.4844 3.25 17.9375C3.25 17.4297 3.64062 17 4.1875 17H19.8125C20.3203 17 20.75 17.4297 20.75 17.9375Z" fill="black"/>
</svg>

<svg xmlns="http://www.w3.org/2000/svg" width="24" height="24" fill="currentColor" class="icon-bars-outline" viewBox="0 0 24 24">
  <mask id="a" width="18" height="15" x="3" y="4" maskUnits="userSpaceOnUse" style="mask-type:alpha">
    <path d="M3.25 5.438c0-.508.39-.938.938-.938h15.625a.95.95 0 0 1 .937.938c0 .546-.43.937-.937.937H4.188c-.547 0-.938-.39-.938-.937m0 6.25c0-.508.39-.938.938-.938h15.625a.95.95 0 0 1 .937.938c0 .546-.43.937-.937.937H4.188c-.547 0-.938-.39-.938-.937m17.5 6.25c0 .546-.43.937-.937.937H4.188c-.547 0-.938-.39-.938-.937 0-.508.39-.938.938-.938h15.625a.95.95 0 0 1 .937.938"/>
  </mask>
  <g mask="url(#a)">
    <path d="M0 0h24v24H0z"/>
  </g>
</svg>
